X: 19856
T: Jessica's
R: polka
M: 2/4
K: Gmajor
|:d2 Bd|ed A>B|G>A B/A/G|dB A>B|
de/d/ B/c/d|ed A>B|G>A BG|1 EG DG:|2 EG D2||
|:E>A GE|BA G2|d2 Bd|gf e2|
de/d/ B/c/d|ed A>B|G>A BG|1 EG DG:|2 EG D2||

